X:100
T:Ten Strike (Quadrille, Fig 4)
T:Tenstrike
R:reel
C:Geo. B. McCosh
S:Ruffwater Fakebook page 2R
N:Via Les Raber, from :Gems of the Ballroom
S:Jim Coon to CoMandoList TOW
M:2/4
L:1/16
Q:1/4=120
K:C
"C"c2GG cGce | g2ga gece | "G7"d2gg B2gg| "C"c2B2A2G2| !
"C"c2GG cGce | g2ga gece | "G7"d2gg BcdB| "C"c2e2c4:|!
|:"Am"a3a a2a2 | A^GAB cBA2| "G"g3g g2g2| G^FGA BAG2|!
"F"f2AA f2AA| "C"e2GG e2GG| "G"d2GG d2B2| c2e2 c4:|!
